!!!!SEGMENT: pl-wn--sd-xvi-qu-273--128_gomolka-mikolaj--szczesliwy-czlowiek-prawdziwie.krn
!!!cenid: 15xx:333
!!!COM: Gomółka, Mikołaj
!!!COM-rismid: pe30013343
!!!CDT: ~1535->1591/04/30
!!!CNT: Polish
!!!GTL: Melodiae na psalterz polski
!!!OTL: CXXVIII. Szczęśliwy człowiek prawdziwie,
!!!ONB: Beati omnes qui timent dominum
!!!PDT: 1580
!!!AGN: Sacred
!!!SMS-siglum: PL-Wn
!!!SMS-shelfmark: SD XVI.Qu.273
!!!SMS-shelfwork: 128 G
!!!NIFC-rismid:
!!!ONB-nifc: Melodiae na psalterz polski
**kern	**text	**kern	**text	**kern	**text	**kern	**text
*part4	*part4	*part3	*part3	*part2	*part2	*part1	*part1
*staff4	*staff4	*staff3	*staff3	*staff2	*staff2	*staff1	*staff1
*clefF3	*	*clefC3	*	*clefC3	*	*clefG2	*
*k[]	*	*k[]	*	*k[]	*	*k[]	*
*f:	*	*f:	*	*f:	*	*f:	*
*M4/2	*	*M4/2	*	*M4/2	*	*M4/2	*
*met(C|)	*	*met(C|)	*	*met(C|)	*	*met(C|)	*
=1-	=1-	=1-	=1-	=1-	=1-	=1-	=1-
1G\	SƷcʒę-	1B/	SƷcʒę-	1d\	SƷcʒę-	1g/	SƷcʒę-
2E/	-śli-	2B/	śli-	2e\	-śli-	2g/	-śli(wy)
2C/	-wy	4c/	-wy	2e\	(-wy)	2g/	cʒł-
.	.	4d\	cʒło-	.	.	.	.
=2-	=2-	=2-	=2-	=2-	=2-	=2-	=2-
2.c\	cʒło-	2.e\	-wiek	2.c/	cʒło-	2g/	-o-
.	.	.	.	.	.	1a/	-wiek
4B\	-wiek	4d\	.	4d\	.	.	.
2A\	.	2c/	praw-	4e\	-wiek	.	.
.	.	.	.	4f\	.	.	.
2G\	praw-	1d\	(-dʒiwie)	1g\	praw-	2b/	praw-
=3-	=3-	=3-	=3-	=3-	=3-	=3-	=3-
1A\	(-dʒiwie)	.	.	.	.	1cc\	(-dʒiwie)
.	.	2c/	Kto	2f\	(-dʒi-	.	.
2G\	Kto	2d\	.	2g\	-wie)	2b/	Kto
2D/	.	2f\	w	2.a\	Kto	1dd\	w
=4-	=4-	=4-	=4-	=4-	=4-	=4-	=4-
1F\	w	1f\	bo-	.	.	.	.
.	.	.	.	4g\	.	.	.
.	.	.	.	2f\	w	2a/	bo-
4C/	bo-	1e\	-iá-	2g\	bo-	1cc\	-iá-
4D/	-iá-	.	.	.	.	.	.
4E/	-ʒ́ni	.	.	2.g\	-iá-	.	.
4F/	páń-	.	.	.	.	.	.
=5-	=5-	=5-	=5-	=5-	=5-	=5-	=5-
2G\	-ſk(iej)	2d\	-ʒ́ni	.	.	2b/	-ʒ́ni
.	.	.	.	4f\	-ʒ́ni	.	.
1A\	ʒ̇y-	1c\	.	1e\	páń-	1a/	páń-
2F/	-wie:	4d\	páń-	4f\	.	2a/	-ſki(ej)
.	.	4c\	-ſk(iej)	4e\	-ſki(ej)	.	.
=6-	=6-	=6-	=6-	=6-	=6-	=6-	=6-
1A\	.	4B/	.	4d\	.	1g/	ʒ̇y-
.	.	2c/	-ʒ̇y-	2e\	ʒ̇y-	.	.
.	.	4B/	.	4d\	.	.	.
2C/	Go-	2c/	-wie:	2e\	-wie:	2g/	-wie:
2c\	.	2e\	GO-	2e\	Go-	2cc\	Go-
=7-	=7-	=7-	=7-	=7-	=7-	=7-	=7-
!!LO:PB:g=original
2A\	-tów	1a\	-tów	2.c/	-tów	2ff\	-tów
2F\	.	.	.	.	.	2ff\	.
.	.	.	.	4d\	peł-	.	.
2.c\	pełnić,	2g\	.	4e\	-nić	2.ee\	peł-
.	.	.	.	4f\	co	.	.
.	.	2e\	peł-	2g\	on	.	.
4B\	co	.	.	.	.	4dd\	-nić,
=8-	=8-	=8-	=8-	=8-	=8-	=8-	=8-
2A\	on	2f\	-nić,	2c/	ſwé-	2cc\	co
2G\	ſwé-	1g\	co	1d\	-mi	2b/	on
1A\	-mi	.	.	.	.	1a/	ſwé-
.	.	2f\	on	2c/	.	.	.
=9-	=9-	=9-	=9-	=9-	=9-	=9-	=9
2G\	.	2g\	ſwé-	2d\	Wy-	2b/	-mi
2D/	Wy-	2f\	-mi	2d\	-rʒékł	2dd\	Wy-
2F/	-rʒékł	2f\	.	2c/	u-	2a/	-rʒé-
2C/	u-	2.e\	Wy-	2.g\	-ſty	2cc\	-kł
=10-	=10-	=10-	=10-	=10-	=10-	=10-	=10-
2E/	-ſty	.	.	.	.	2g/	u-
.	.	4d\	-rʒékł	4f\	.	.	.
1A\	na-	1c\	uſty	1e\	na-	2.a/	-ſty
.	.	.	.	.	.	.	.
.	.	.	.	.	.	4b/	naś-
2F/	-święt-	4f\	.	2a\	-świę-	1cc\	-wię-
.	.	4e\	na-	.	.	.	.
=11-	=11-	=11-	=11-	=11-	=11-	=11-	=11-
1G\	-ſʒé-	4d\	-święt-	2.g\	-tſʒé-	.	.
.	.	4c\	-ſʒé-	.	.	.	.
.	.	2d\	-mi.	.	.	2b/	-tſʒémi.
.	.	.	.	4f\	-mi.	.	.
000C/	-mi.	000c\	.	000e\	.	000cc\	.
=-	=-	=-	=-	=-	=-	=-	=-
*-	*-	*-	*-	*-	*-	*-	*-
!!!RDF**kern: l = terminal long
!!!system-decoration: s1,s2,s3,s4
!!!ENC: Leszek Kubiak
!!!END: data 2020-02-21
!!!URL-scan: https://polona.pl/item/melodiae-na-psalterz-polski,Nzk3MTM4ODQ/300 Scan on Polona
!!!IIIF: https://polona.pl/iiif/item/Nzk3MTM4ODQ/manifest.json
